public/icons/inst-new.svg

<svg width="25" height="25" viewBox="0 0 25 25" fill="none" xmlns="http://www.w3.org/2000/svg">
<path d="M12.5 25C19.4036 25 25 19.4036 25 12.5C25 5.59644 19.4036 0 12.5 0C5.59644 0 0 5.59644 0 12.5C0 19.4036 5.59644 25 12.5 25Z" fill="#6C27B3"/>
<path d="M18.2964 6.49034C16.8029 6.6794 15.2457 6.67281 13.6785 6.52359C11.4899 6.35523 8.29131 5.34512 7.11285 7.36534C5.21968 10.5995 6.15342 14.7401 6.59459 18.4043L13.1735 24.9818C19.5401 24.6438 24.6426 19.542 24.9817 13.1757L18.2964 6.49034Z" fill="#501A96"/>
<path d="M15.3916 5.34521H9.60762C7.25703 5.34521 5.34473 7.25752 5.34473 9.60811V15.392C5.34473 17.7425 7.25703 19.655 9.60767 19.655H15.3916C17.7421 19.655 19.6545 17.7426 19.6545 15.392V9.60811C19.6545 7.25752 17.7421 5.34521 15.3916 5.34521ZM18.2149 15.3921C18.2149 16.9514 16.9509 18.2154 15.3916 18.2154H9.60767C8.04839 18.2154 6.78433 16.9514 6.78433 15.3921V9.60815C6.78433 8.04888 8.04839 6.78477 9.60767 6.78477H15.3916C16.9509 6.78477 18.2149 8.04893 18.2149 9.60815V15.3921Z" fill="white"/>
<path d="M12.4989 8.79907C10.4582 8.79907 8.79785 10.4594 8.79785 12.5001C8.79785 14.5407 10.4582 16.2011 12.4989 16.2011C14.5396 16.2011 16.1999 14.5409 16.1999 12.5001C16.1999 10.4594 14.5396 8.79907 12.4989 8.79907ZM12.4989 14.7615C11.25 14.7615 10.2374 13.7492 10.2374 12.5001C10.2374 11.2511 11.25 10.2386 12.4989 10.2386C13.7479 10.2386 14.7603 11.2511 14.7603 12.5001C14.7603 13.7491 13.7479 14.7615 12.4989 14.7615Z" fill="white"/>
<path d="M17.095 8.82681C17.095 9.31655 16.6979 9.71367 16.2082 9.71367C15.7184 9.71367 15.3213 9.31655 15.3213 8.82681C15.3213 8.33701 15.7184 7.93994 16.2082 7.93994C16.698 7.93994 17.095 8.33691 17.095 8.82681Z" fill="#D1D1D1"/>
<path d="M15.3917 5.34521H12.4717V6.78477H15.3917C16.951 6.78477 18.215 8.04893 18.215 9.60815V15.3921C18.215 16.9514 16.951 18.2154 15.3917 18.2154H12.4717V19.655H15.3917C17.7422 19.655 19.6546 17.7426 19.6546 15.392V9.60811C19.6546 7.25752 17.7422 5.34521 15.3917 5.34521Z" fill="#D1D1D1"/>
<path d="M12.4997 8.79907C12.4903 8.79907 12.4811 8.79976 12.4717 8.79976V10.2393C12.481 10.2392 12.4903 10.2386 12.4997 10.2386C13.7487 10.2386 14.7611 11.2511 14.7611 12.5001C14.7611 13.7491 13.7487 14.7615 12.4997 14.7615C12.4903 14.7615 12.481 14.7609 12.4717 14.7608V16.2004C12.4811 16.2005 12.4903 16.2011 12.4997 16.2011C14.5404 16.2011 16.2006 14.5408 16.2006 12.5001C16.2006 10.4594 14.5404 8.79907 12.4997 8.79907Z" fill="#D1D1D1"/>
</svg>

<svg viewBox="0 0 25 25" fill="none" xmlns="http://www.w3.org/2000/svg"><path d="M12.5 25C19.404 25 25 19.404 25 12.5S19.404 0 12.5 0 0 5.596 0 12.5 5.596 25 12.5 25z" fill="#6C27B3"/><path d="M18.296 6.49c-1.493.19-3.05.183-4.617.034-2.19-.169-5.388-1.179-6.566.841-1.893 3.235-.96 7.375-.518 11.04l6.579 6.577c6.366-.338 11.469-5.44 11.808-11.806L18.296 6.49z" fill="#501A96"/><path d="M15.392 5.345H9.608a4.268 4.268 0 00-4.263 4.263v5.784a4.268 4.268 0 004.263 4.263h5.784a4.268 4.268 0 004.262-4.263V9.608a4.268 4.268 0 00-4.262-4.263zm2.823 10.047a2.823 2.823 0 01-2.823 2.823H9.608a2.823 2.823 0 01-2.824-2.823V9.608a2.823 2.823 0 012.824-2.823h5.784a2.823 2.823 0 012.823 2.823v5.784z" fill="#fff"/><path d="M12.499 8.8a3.705 3.705 0 00-3.701 3.7c0 2.04 1.66 3.701 3.7 3.701a3.705 3.705 0 003.702-3.7 3.705 3.705 0 00-3.701-3.702zm0 5.961a2.261 2.261 0 110-4.522 2.261 2.261 0 010 4.522z" fill="#fff"/><path d="M17.095 8.827a.887.887 0 11-1.774 0 .887.887 0 011.774 0z" fill="#D1D1D1"/><path d="M15.392 5.345h-2.92v1.44h2.92a2.823 2.823 0 012.823 2.823v5.784a2.823 2.823 0 01-2.823 2.823h-2.92v1.44h2.92a4.268 4.268 0 004.263-4.263V9.608a4.268 4.268 0 00-4.263-4.263z" fill="#D1D1D1"/><path d="M12.5 8.8h-.028v1.44l.028-.001a2.261 2.261 0 010 4.522h-.028v1.44h.028c2.04 0 3.7-1.66 3.7-3.7a3.705 3.705 0 00-3.7-3.702z" fill="#D1D1D1"/></svg>
